!!!OTL: 334. Ohne Lieb' und ohne Wein.
!!!COM: A. Hiller
!!!ODT: 1766 (1770)
!!!ARE: Europa, Mitteleuropa, Deutschland
!!!SCT: B0334
!!!TXL: @@DE
!!!YEM: Copyright 1995, estate of Helmut Schaffrath.
**kern	**text
*ICvox	*
*Ivox	*
*clefG2	*
*M2/4	*
*k[f#c#g#]	*
*A:	*
=1	=1
!LO:TX:a:t=Andante moderato.	!
{8.a	Oh-
32cc#L	-ne
32bJ	.
8a	Lieb'
8e	und
=2	=2
8.cc#	oh-
32eeL	-ne
32ddJ	.
(8ddqq/	.
4cc#)}	Wein,
=3	=3
{8b	was
8b	wär'
16bL	un-
16ddJ	.
16f#L	-ſer
16bJ	.
=4	=4
8aL	Le-
8g#J	.
4a}	-ben?
=5	=5
{8.a	Al-
32cc#L	-les,
32bJ	.
8a	was
8e	uns
=6	=6
8.cc#	kann
32eeL	er-
32ddJ	.
(8dd/qq	-
4cc#)}	-freun,
=7	=7
{8b	müſ-
8b	-ſen
16bL	die-
16ddJ	.
16f#L	-ſe
16bJ	.
=8	=8
8aL	ge-
8g#J	.
4a}	-ben.
=9	=9
{8b	Wenn
16gL#	die
16aJ	.
8b	Gro-
16g#L	-ßen
16aJ	.
=10	=10
16bL	ſich
16ddJ	.
16cc#L	er-
16eeJ	.
(8eeqq	.
4dd)}	-freun,
=11	=11
{8cc#	was
8ee	iſt
(8eeqq	.
8ff#)	ih-
16eeL	-re
16ddJ	.
=12	=12
(4cc#	Freu-
16ddqqL)	.
16cc#qqJ	.
4b}	-de?
=13	=13
{8.a	Hüb-
32cc#L	-ſche
32bJ	.
8a	Mädchen,
8e	.
=14	=14
8.cc#	gu-
32eeL	-ter
32ddJ	.
(8ddqq	.
4cc#)}	Wein,
=15	=15
{8b	ein-
8b	-ʒig
16bL	die-
16ddJ	.
16f#L	-ſe
16bJ	.
=16	=16
8aL	bei-
8g#J	.
4a}	-de.
==	==
!!!AGN: Trink - Lied
!!!GTL: Wein- und Trinklieder
!!!ONB: ESAC (Essen Associative Code) Database: BOEHME
!!!AMT: simple duple
!!!AIN: vox
!!!EED: Helmut Schaffrath
!!!EEV: 1.0
!!@@COMMENT:"Spätere Verbeſſerungen ſo: * Helden. ** frohen. ♱ Ramler beſſert: "daß wir uns
!!nicht ſtündlich freun machet, weil wir dürſten". - Jn der Melodie hat man ſpater die Punkte auf-
!!gegeben und auch die Vorſchläge entfernt, was volksthümlicher klingt.
!!Text und Melodie in einer Neubearbeitung der Oper: Die verwandelten Weiber oder der
!!Teufel iſt los", (nach Coffey's Ballad faree: The Devil to pay or the Wives metamorpho-
!!sed. London 1731). Text von C. F. Weiße, Muſik von J. A. Hiller. [...]"
!!@@END:
!!!Text: C. F. Weiße
!!!URL-scan: https://archive.org/details/BoehmeVtLieder1895/page/n279/mode/2up
!!!ENC: Anna Maria Matuszewska
!!!EEV: 2024/04/07
*-	*-
